X: 152
M: C|
L: 1/8
K: Gm
c |\
d |\
gdgb (Bg/a/b).g | fac=e fcAF | gdgb (Bg/a/b).g | fcAd BG-Gd
gdbg a^fgd | fcdf  cAGF | GBdg fdcA | BGD^F GG,-G, |]


